X:1
T:Title
%%score { ( 1 3 ) | ( 2 4 5 ) }
L:1/8
M:4/4
K:Bb
V:1 treble nm="Grand Piano"
V:3 treble 
V:2 bass 
V:4 bass 
V:5 bass 
V:1
 z4 z2[Q:1/4=104] [DF]2 | z4 z2 G2[K:bass] | E2[K:treble] G2 F2 B2 | c4 F4 | [Dd]8 | %5
 [^Fd]3 [Fc] [FB]2 [FA]2 | z2 B2 z4 | z4 z2 c2 | [Ff]2 [Fd]2 [Gc]2 [EGB]2 | z4 F2 z2 | [B,B]8 |] %11
V:2
 z4 z2 [B,,B,]2 | [B,,F,]3 [D,B,] [E,B,E]2 .[E,B,E]2 | [G,B,]2 [A,CE]2 [B,D]2 [G,B,D]2 | %3
 [F,B,E]4 [F,A,E]4 | [B,,B,]8 | [D,A,]3 [D,A,] [D,D]2 [D,C]2 | [EG]4 z4 | z4 [B,F]2 z2 | %8
 [D,B,]2 [D,A,]2 [E,G,]2 E,2 | F,4 z2 E2 | z2 DC D4 |] %11
V:3
 x8 | [DB]3 F A2 z[K:bass] F, | x2[K:treble] x6 | x8 | x8 | x8 | c2 z F A2 G2 | F2 e2 d2 z E, | %8
 x8 | [_D=EG]4 [CA]4 | E2 z2 z4 |] %11
V:4
 x8 | x8 | x8 | x8 | x8 | x8 | G,2 z D [A,_D=E]2 [B,DE]2 | [A,C]2 [G,B,E]2 F,2- [F,A,F]2 | x8 | %9
 z4 F,,4 | B,,8 |] %11
V:5
 x8 | x8 | x8 | x8 | x8 | x8 | z2 G,2 z4 | x8 | x8 | x8 | x8 |] %11

